app/img/comfort.svg

<svg width="48" height="48" viewBox="0 0 48 48" fill="none" xmlns="http://www.w3.org/2000/svg">
<g clip-path="url(#clip0)">
<path d="M38.0536 2.09001C31.8843 1.44159 26.3377 5.93317 25.6893 12.1024L24.5623 22.8246C24.4812 23.597 25.0415 24.289 25.8139 24.3702L26.2801 24.4192L25.1041 35.6075C24.5638 40.7486 28.3068 45.3708 33.4478 45.9111C38.5889 46.4515 43.2111 42.7085 43.7514 37.5674L44.9274 26.3791L45.3935 26.4281C46.1659 26.5092 46.8579 25.9489 46.9391 25.1765L48.066 14.4543C48.7144 8.28506 44.2229 2.73842 38.0536 2.09001ZM37.7596 4.8871C42.3866 5.37341 45.7553 9.53339 45.2689 14.1603L44.877 17.8898L28.0944 16.1259L28.4864 12.3964C28.9727 7.76947 33.1327 4.40079 37.7596 4.8871ZM27.5064 21.7201L27.8004 18.923L44.583 20.6869L44.289 23.484L27.5064 21.7201ZM40.9543 37.2735C40.5761 40.8722 37.3405 43.4923 33.7418 43.114C30.1431 42.7358 27.523 39.5003 27.9012 35.9015L29.0772 24.7131L42.1303 26.0851L40.9543 37.2735Z" fill="#FF5A30"/>
<path d="M32.171 40.1218L35.9004 40.5138C36.6728 40.595 37.3648 40.0346 37.446 39.2622C37.5271 38.4899 36.9668 37.7979 36.1944 37.7167L32.465 37.3247C31.6926 37.2435 31.0006 37.8039 30.9194 38.5763C30.8382 39.3487 31.3986 40.0406 32.171 40.1218Z" fill="#FF5A30"/>
<path d="M9.94716 2.08968C3.77789 2.7381 -0.713682 8.28473 -0.0652657 14.454L1.06168 25.1762C1.14286 25.9486 1.83485 26.5089 2.60722 26.4277L3.0734 26.3787L4.24935 37.5671C4.7897 42.7082 9.41189 46.4511 14.5529 45.9108C19.694 45.3705 23.437 40.7483 22.8966 35.6072L21.7207 24.4188L22.1869 24.3698C22.9592 24.2887 23.5196 23.5967 23.4384 22.8243L22.3115 12.1021C21.6631 5.93284 16.1164 1.44126 9.94716 2.08968ZM3.71178 23.4837L3.4178 20.6866L20.2004 18.9226L20.4943 21.7197L3.71178 23.4837ZM20.0995 35.9012C20.4778 39.4999 17.8577 42.7355 14.259 43.1137C10.6602 43.492 7.42468 40.8719 7.04644 37.2731L5.8705 26.0848L18.9236 24.7128L20.0995 35.9012ZM19.9064 16.1255L3.12381 17.8895L2.73183 14.16C2.24552 9.53306 5.6142 5.37308 10.2411 4.88677C14.8681 4.40046 19.0281 7.76914 19.5144 12.3961L19.9064 16.1255Z" fill="#FF5A30"/>
<path d="M12.0998 40.5134L15.8292 40.1214C16.6016 40.0402 17.1619 39.3482 17.0808 38.5759C16.9996 37.8035 16.3076 37.2431 15.5352 37.3243L11.8058 37.7163C11.0334 37.7975 10.473 38.4895 10.5542 39.2618C10.6354 40.0342 11.3274 40.5946 12.0998 40.5134Z" fill="#FF5A30"/>
</g>
<defs>
<clipPath id="clip0">
<rect width="48" height="48" fill="white"/>
</clipPath>
</defs>
</svg>

<svg width="48" height="48" fill="none" xmlns="http://www.w3.org/2000/svg"><g clip-path="url(#clip0)" fill="#FF5A30"><path d="M38.054 2.09c-6.17-.648-11.716 3.843-12.365 10.012l-1.127 10.723a1.406 1.406 0 001.252 1.545l.466.05-1.176 11.188c-.54 5.14 3.203 9.763 8.344 10.303 5.14.54 9.763-3.203 10.303-8.344l1.176-11.188.467.05a1.406 1.406 0 001.545-1.252l1.127-10.723c.648-6.169-3.843-11.716-10.012-12.364zm-.294 2.797c4.627.486 7.995 4.646 7.509 9.273l-.392 3.73-16.783-1.764.392-3.73c.487-4.627 4.647-7.995 9.274-7.509zM27.506 21.72l.294-2.797 16.783 1.764-.294 2.797-16.783-1.764zm13.448 15.553a6.57 6.57 0 01-7.212 5.841 6.57 6.57 0 01-5.84-7.212l1.175-11.189 13.053 1.372-1.176 11.188z"/><path d="M32.171 40.122l3.73.392a1.406 1.406 0 00.293-2.797l-3.729-.392a1.406 1.406 0 00-.294 2.797zM9.947 2.09C3.777 2.738-.713 8.285-.065 14.454l1.127 10.722a1.406 1.406 0 001.545 1.252l.466-.05 1.176 11.19c.54 5.14 5.163 8.883 10.304 8.343 5.141-.54 8.884-5.163 8.344-10.304L21.72 24.42l.466-.05a1.406 1.406 0 001.251-1.545l-1.127-10.722c-.648-6.17-6.195-10.66-12.364-10.012zM3.712 23.484l-.294-2.797L20.2 18.923l.294 2.797-16.782 1.764zM20.099 35.9a6.57 6.57 0 01-5.84 7.213 6.57 6.57 0 01-7.213-5.84L5.87 26.083l13.054-1.371L20.099 35.9zm-.193-19.776L3.124 17.89l-.392-3.73c-.486-4.627 2.882-8.787 7.51-9.273 4.626-.487 8.786 2.882 9.272 7.51l.392 3.728z"/><path d="M12.1 40.513l3.73-.392a1.406 1.406 0 00-.295-2.797l-3.73.392a1.406 1.406 0 10.295 2.797z"/></g><defs><clipPath id="clip0"><path fill="#fff" d="M0 0h48v48H0z"/></clipPath></defs></svg>
